X: 239
T: Beklerim Her Gün
C: İsmail Hakkı Nebiloğlu
O: Turkey
F: http://compmusic.upf.edu/node/140
N: huzzam--sarki--duyek--beklerim_her_gun--ismail_hakki_nebiloglu
N: makam= huzzam
N: form= sarki
N: usul= duyek = 8/4
M: 8/4
L: 1/16
K: C _1/4B _3/4e ^3/4f 
Q: 1/4=120
%%MIDI tuningsystem comma53
z2 {a}g2 f2 ed f3/2e/ d2 ^F3/2E/ D2  | \
w:  *  Bek *  le *  rim  *  *  SAZ  | 
ed c4 de dc B^A B3z  | 
w:  her  *  *  *  *  gün   | 
c2 d4 e2 f3e (3gfe ed  | d8 c2 B/A/G d2 z2  | \
w:  bu  sa *  hil *  ler  |  de  SAZ  | 
g2 a4 g2 (3agf g4 f2  | 
w:  mah *  *  zun   | 
(3gfe f4 e2 (3fed e4 d2  | z2 d2 e2 f2 a2 f2 ge2e/d/  | \
w:   |  böy *  *  *  *  *  *  le   | 
d8 c2 B/A/G d4  | 
w:  ben   SAZ  | 
d3/2e/ .f.g .a.f .g.e d2 {e}dc B^A B2  | \
w:  SAZ  | 
z2 {a}g2 f2 ed f3/2e/ d2 ^F3/2E/ D2  | 
w:  *  Bek *  le *  rim  *  *  SAZ  | 
ed c4 de dc B^A B3z  | c2 d4 e2 f3e (3gfe ed  | 
w:  her  *  *  *  *  gün   |  bu  sa *  hil *  ler  | 
d8 c2 B/A/G d2 z2  | g2 a4 g2 (3agf g4 f2  | \
w:  de  SAZ  |  mah *  *  zun   | 
(3gfe f4 e2 (3fed e4 d2  | 
w:   | 
z2 d2 e2 f2 a2 f2 ge2e/d/  | d8 c2 B/A/G d4  | \
w:  böy *  *  *  *  *  *  le   |  ben   SAZ  | 
d3/2e/ .f.g .a.f .g.e d3g fa {_b}g2  | 
w:  SAZ  | 
z2 g4 g2 (3agf g4 {a}f2  | (3agf g2 (3agf g2 (3agf (3gfe (3def (3gfa  | 
w:  Gün  ba tar   |  SAZ  | 
g2 a2 g2 gf fe {f}ed ee/d/ e2  | d2 a2 g2 fg fe {f}ed e4  | 
w:  *  kuş *  lar  *  dö *  *  *  *  ner   |  *  SAZ  | 
d2 a_b ab a{b}g a3/2g/ fg fg ed  | \
w:  *  dön *  *  *  *  *  *  mez   | 
ag gf {g}f3e fe {f}ed e3d  | 
w:  bu  *  yol *  *  dan   | 
z2 d2 e2 f2 a2 f2 ge2e/d/  | d8 c2 B/A/G d4  | \
w:  bek *  *  *  *  *  *  le  |  nen  SAZ  | 
d3/2e/ .f.g .a.f .g.e d3g fa g2  | 
w:   | 
z2 g4 g2 (3agf g4 {a}f2  | (3agf g2 (3agf g2 (3agf (3gfe (3def (3gfa  | 
w:  Gün  ba tar   |  SAZ  | 
g2 a2 g2 gf fe {f}ed ee/d/ e2  | d2 a2 g2 fg fe {f}ed e4  | 
w:  *  kuş *  lar  *  dö *  *  *  *  ner   |  *  SAZ  | 
d2 a_b ab a{b}g a3/2g/ fg fg ed  | \
w:  *  dön *  *  *  *  *  *  mez   | 
ag gf {g}f3e fe {f}ed e3d  | 
w:  bu  *  yol *  *  dan   | 
z2 d2 e2 f2 g2 fe dc {d}cB  | B8 z^A Bc Bc de  | \
w:  bek *  *  *  *  *  *  *  *  le  |  nen   SAZ  | 
fg a_b ab ag ag {a}fg a4  | 
w:   | 
z2 g4 a2 a8  | gf =f3/2=e/ e3/2d/ d3/2c/ c3/2_2/4B/ B3/2A/ A4  | \
w:  En  ni ha  |  yet   | 
A3/2_2/4B/ cd c_1/4B AG A2 c4 d2  | 
w:  SAZ *  *  *  *  *  *  *  *  an la  | 
d2 d4 {e}c2 d3/2e/ fg fe dc  | B2 {g}f2 e2 d4 {f}e2 d2 c2  | \
w:  dım  *  *  *  SAZ  |  *  *  yok *  *  *  muş   | 
z2 {e}d2 c2 B2 c2 _2/4BA {B}A2 .c/.d/.e/.f/  | 
w:  *  gö *  *  ren  *  *  *  *  SAZ  | 
g2 g2 f2 ed a2 gf ge2{f}_1/4e/d/  | \
w:  *  hat *  *  *  ta  *  *  *  *  *  bi  | 
d8 c2 (3BAG d4  | d3/2e/ .f.g .a.f .g.e d3g fa {_b}g2  | 
w:  len   SAZ  |   | 
z2 g4 g2 (3agf g4 {a}f2  | (3agf g2 (3agf g2 (3agf (3gfe (3def (3gfa  | 
w:  Gün  ba tar   |  SAZ  | 
g2 a2 g2 gf fe {f}ed ee/d/ e2  | d2 a2 g2 fg fe {f}ed e4  | 
w:  *  kuş *  lar  *  dö *  *  *  *  ner   |  *  SAZ  | 
d2 a_b ab a{b}g a3/2g/ fg fg ed  | \
w:  *  dön *  *  *  *  *  *  mez   | 
ag gf {g}f3e fe {f}ed e3d  | 
w:  bu  *  yol *  *  dan   | 
z2 d2 e2 f2 a2 f2 ge2e/d/  | d8 c2 B/A/G d4  | \
w:  bek *  *  *  *  *  *  le  |  nen  SAZ  | 
d3/2e/ .f.g .a.f .g.e d3g fa g2  | 
w:   | 
z2 g4 g2 (3agf g4 {a}f2  | (3agf g2 (3agf g2 (3agf (3gfe (3def (3gfa  | 
w:  Gün  ba tar   |  SAZ  | 
g2 a2 g2 gf fe {f}ed ee/d/ e2  | d2 a2 g2 fg fe {f}ed e4  | 
w:  *  kuş *  lar  *  dö *  *  *  *  ner   |  *  SAZ  | 
d2 a_b ab a{b}g a3/2g/ fg fg ed  | \
w:  *  dön *  *  *  *  *  *  mez   | 
ag gf {g}f3e fe {f}ed e3d  | 
w:  bu  *  yol *  *  dan   | 
z2 d2 e2 f2 g2 fe dc {d}cB  | B8 |
w:  bek *  *  *  *  *  *  *  *  le  |  nen    | 


